!!!OTL: Qiongren douba shenfanle
!!!ARE: Asia, China,ÿGansu Kangle
!! I, 109
!!!SCT: C1805
!!!YEM: Copyright 1995, estate of Helmut Schaffrath.
**kern
*ICvox
*Ivox
!! Mixed meters:  3/4; 4/4
*M3/4
*k[b-e-a-]
*E-:
{2.f
4b-
=1
4ee-
4ff
4ff
4ff
=2
4ee-
4cc
4ee-
4cc
=3
4cc
4ff
4cc
4ee-
=4
4cc
4b-
2f}
=5
{2.f
4ee-
=6
4ee-
4ff
8ee-
8cc
4b-
=7
4ff
8ee-
8cc
8ee-
8cc
4b-
=8
4ee-
4ff
4cc
4ee-
=9
4ff
8cc
8b-
2f}
=10
{2.f
8ee-
8cc
=11
4ee-
4ff
4ff
4ee-
=12
4ff
4cc
4b-
4b-
=13
4ee-
4ff
4cc
4ee-
=14
4ee-
4b-
2f}
=15
{1f
=16
4ee-
4ee-
4cc
=17
4cc
4b-
4b-
=18
2.f}
==
!!!AGN: Shange, Huar, Lianhuashanling
!! Han Hui
!!!ONB: ESAC (Essen Associative Code) Database: SENGANSU
!!!AMT: irregular
!!!AIN: vox
!!!EED: Helmut Schaffrath
!!!EEV: 1.0
*-
